X:24
T:goelcerth, y
S:Boys of the Hill abc file
Z:crm
M:4/4
L:1/8
Q:1/4=240
K:G
~G2 Bd cBcA|GBAG FADF|~G2 Ac BdBG|A2GE DEcA|
G2 Bd cBcA|GBAG FDEF|GEDc B>cAd|BGAF G2z2:||
DFAB2 DFA|GBEG EGBE|A2G2 FEAG|B2A2 G2F2|
~G2 Bd cBcA|GBAG FDEF|GEdc B>cAF|BGAF G2z2:||
